modules/feathericon/icons/cry.svg

<?xml version="1.0" encoding="UTF-8"?>
<svg width="24px" height="24px" viewBox="0 0 24 24" version="1.1" xmlns="http://www.w3.org/2000/svg" xmlns:xlink="http://www.w3.org/1999/xlink">
    <!-- Generator: sketchtool 52.2 (67145) - http://www.bohemiancoding.com/sketch -->
    <title>cry</title>
    <desc>Created with sketchtool.</desc>
    <g id="people" stroke="none" stroke-width="1" fill="none" fill-rule="evenodd">
        <g id="cry" fill="#000000">
            <path d="M9.5,12 C10.3284271,12 11,11.3284271 11,10.5 C11,9.67157288 10.3284271,9 9.5,9 C8.67157288,9 8,9.67157288 8,10.5 C8,11.3284271 8.67157288,12 9.5,12 Z M15,16 C15,14.3431458 13.6568542,13 12,13 C10.3431458,13 9,14.3431458 9,16 L10,16 C10,16 10.3168385,14 12,14 C13.6831615,14 13.99584,16 13.99584,16 L15,16 Z M14.5,12 C15.3284271,12 16,11.3284271 16,10.5 C16,9.67157288 15.3284271,9 14.5,9 C13.6715729,9 13,9.67157288 13,10.5 C13,11.3284271 13.6715729,12 14.5,12 Z M12,20 C16.418278,20 20,16.418278 20,12 C20,7.581722 16.418278,4 12,4 C7.581722,4 4,7.581722 4,12 C4,16.418278 7.581722,20 12,20 Z M12,22 C6.4771525,22 2,17.5228475 2,12 C2,6.4771525 6.4771525,2 12,2 C17.5228475,2 22,6.4771525 22,12 C22,17.5228475 17.5228475,22 12,22 Z M16,15 C16.5522847,15 17,14.5522847 17,14 C17,13.6318102 16.6666667,12.9651435 16,12 C15.3333333,12.9651435 15,13.6318102 15,14 C15,14.5522847 15.4477153,15 16,15 Z" id="Shape"></path>
        </g>
    </g>
</svg>

<svg width="24" height="24" viewBox="0 0 24 24" xmlns="http://www.w3.org/2000/svg"><path d="M9.5 12a1.5 1.5 0 1 0 0-3 1.5 1.5 0 0 0 0 3zm5.5 4a3 3 0 0 0-6 0h1s.317-2 2-2 1.996 2 1.996 2H15zm-.5-4a1.5 1.5 0 1 0 0-3 1.5 1.5 0 0 0 0 3zM12 20a8 8 0 1 0 0-16 8 8 0 0 0 0 16zm0 2C6.477 22 2 17.523 2 12S6.477 2 12 2s10 4.477 10 10-4.477 10-10 10zm4-7a1 1 0 0 0 1-1c0-.368-.333-1.035-1-2-.667.965-1 1.632-1 2a1 1 0 0 0 1 1z" fill="#000" fill-rule="evenodd"/></svg>
